X: 2
T: Idlewild Jig
M: 6/8
K: D	% and Bm
|:\
"D" D2D FED | F2A d2 A | "G" Bcd A2F | "A"E2D B,2A, |\
"D" D2D FED | F2A d2 A | "G" Bcd A2F | "A"E2F "D"D3 :|
|:\
"Bm"B2F F^EF | "Bm/A#"d2 B B^AB | "Bm/A" f2 B B^AB | "Bm/G#" b2f f^ef | "G"g2e "D"f2d |\
"A"e2c "D"d2A |"G"Bcd [1 "A"A2c | "F#m"B2A F2A :|[2 "D"A2F | "A"E2D B,2A, |]
% text 04/19/08

